X:1
T:Resurrection (Gould), irr.
T:Resurrection (Gould), irr.
T:John Edgar Gould (1822-1875)
T:Public Domain Courtesy of the Cyber Hymnal™
C:John Edgar Gould (1822-1875)
Z:Public Domain
Z:Courtesy of the Cyber Hymnal™
%%score ( 1 2 ) ( 3 4 )
L:1/8
Q:1/4=130
M:4/4
K:E
V:1 treble 
V:2 treble 
V:3 bass 
V:4 bass 
V:1
 E2 | E4 E2 G2 | B4 [GB]2 [GB]2 | [FB]4 [Fe]2 [Fe]2 | ([Fd]4 [Fd]2) [Fd]2 | [Ge]4 [Ae]2 [Ac]2 | %6
 [GB]4 [EG]2 [EG]2 | ([DF]2 [EG]2) [FA]2 [GB]2 | [EG]8 | [DF]4 ([DF][FA]) ([EG][GB]) | %10
 [FA]4 [FA]2 ([EG][DF]) | [EG]4 ([EG][GB]) ([FA][Ac]) | ([GB]4 [GB]2) [EB]2 | [DA]4 [FA]2 [FA]2 | %14
 ([EG]2 [GB]2) [Be]2 [Af]2 | [Ge]4 [Fd]2 [Ad]2 | [Ge]6 |] %17
V:2
 E2 | E4 E2 G2 | B4 x4 | x8 | x8 | x8 | x8 | x8 | x8 | x8 | x8 | x8 | x8 | x8 | x8 | x8 | x6 |] %17
V:3
 E,2 | E,4 E,2 G,2 | B,4 [G,B,]2 [E,B,]2 | [D,B,]4 [C,^A,]2 [C,A,]2 | %4
 ([B,,B,]4 [B,,B,]2) [B,,B,]2 | [E,B,]4 [E,C]2 [E,E]2 | [E,E]4 [E,B,]2 [E,B,]2 | %7
 [B,,B,]4 [B,,B,]2 [B,,B,]2 | [E,B,]8 | [B,,B,]4 [B,,B,]2 [E,B,]2 | [B,,B,]4 [B,,B,]2 [B,,B,]2 | %11
 [E,B,]4 [E,B,]2 [E,E]2 | ([E,E]4 [E,E]2) [G,B,]2 | [F,B,]4 [D,B,]2 [D,B,]2 | %14
 (B,2 E2) [G,E]2 [A,C]2 | B,4 [B,,B,]2 [B,,B,]2 | [E,B,]6 |] %17
V:4
 E,2 | E,4 E,2 G,2 | B,4 x4 | x8 | x8 | x8 | x8 | x8 | x8 | x8 | x8 | x8 | x8 | x8 | E,4 x4 | %15
 B,4 x4 | x6 |] %17

